images/Facebook.svg

<svg width="42" height="42" viewBox="0 0 42 42" fill="none" xmlns="http://www.w3.org/2000/svg">
<rect width="42" height="42" fill="#F38281"/>
<path d="M23.4448 36.7447V22.4017H28.2836L29.0028 16.7859H23.4448V13.2089C23.4448 11.5884 23.8963 10.4789 26.2221 10.4789H29.1691V5.47218C27.7352 5.31851 26.2939 5.24432 24.8518 5.24993C20.5748 5.24993 17.6383 7.86093 17.6383 12.6542V16.7754H12.8311V22.3912H17.6488V36.7447H23.4448Z" fill="white"/>
</svg>

<svg width="42" height="42" fill="none" xmlns="http://www.w3.org/2000/svg"><path fill="#F38281" d="M0 0h42v42H0z"/><path d="M23.445 36.745V22.402h4.839l.719-5.616h-5.558v-3.577c0-1.62.451-2.73 2.777-2.73h2.947V5.472a39.088 39.088 0 0 0-4.317-.222c-4.277 0-7.214 2.61-7.214 7.404v4.121h-4.807v5.616h4.818v14.354h5.796Z" fill="#fff"/></svg>
